X: 092
T: Turkish Ambassadors Whim
%R: reel
Z: 2018 John Chambers <jc:trillian.mit.edu>
B: Bland and Weller "Country Dances for the Year 1798" p.9 #2
M: C
L: 1/8
K: Bb
% - - - - - - - - - - - - - - - - - - - - - - - - -
|:\
BBBF cccF | dBec B/A/B/c/ BF |\
BBBF cccb | agf=e f2f2 :|
|:\
fffe dddc | egdf cedB |\
fffe dddB | cecA B2B2 :|
% - - - - - - - - - - - - - - - - - - - - - - - - -
%%begintext align
%% Set and hands across .| back again
%% .|. Down the middle up again :|.
%% Allmand :|:
%%endtext
% - - - - - - - - - - - - - - - - - - - - - - - - -
